img/social-icons/twitter.svg

<svg width="20" height="18" viewBox="0 0 20 18" fill="none" xmlns="http://www.w3.org/2000/svg">
<path d="M19.455 1.01613C18.6376 1.5066 17.7657 1.83357 16.8392 2.05155C16.0763 1.23412 15.0409 0.743652 13.842 0.743652C11.5531 0.743652 9.75477 2.65101 9.75477 4.93984C9.75477 5.26681 9.80926 5.59379 9.86376 5.92076C6.43052 5.70278 3.43324 4.01341 1.41689 1.4521C1.08992 2.05155 0.871935 2.8145 0.871935 3.57744C0.871935 5.04883 1.58038 6.30224 2.7248 7.06518C2.07084 7.06518 1.41689 6.84719 0.871935 6.52022V6.62921C0.871935 8.64556 2.28883 10.3894 4.14169 10.7709C3.81471 10.8799 3.43324 10.9344 3.05177 10.9344C2.77929 10.9344 2.50681 10.9344 2.28883 10.8799C2.83379 12.5693 4.30518 13.7682 6.10354 13.8227C4.68665 14.9671 2.94278 15.621 0.980926 15.621C0.653951 15.621 0.326975 15.621 0 15.5665C1.79837 16.7654 3.9782 17.4739 6.26703 17.4739C13.842 17.4739 17.9292 11.0434 17.9292 5.4848C17.9292 5.32131 17.9292 5.10332 17.9292 4.93984C18.7466 4.34038 19.455 3.63194 20 2.76C19.2916 3.08698 18.4741 3.30496 17.6567 3.41395C18.4741 2.8145 19.1281 1.99706 19.455 1.01613Z" fill="#B3B3B3"/>
</svg>

<svg width="20" height="18" fill="none" xmlns="http://www.w3.org/2000/svg"><path d="M19.455 1.016c-.817.49-1.69.818-2.616 1.036A4.032 4.032 0 0013.842.744c-2.289 0-4.087 1.907-4.087 4.196 0 .327.054.654.109.98-3.433-.217-6.43-1.907-8.447-4.468a4.555 4.555 0 00-.545 2.125c0 1.472.708 2.725 1.853 3.488-.654 0-1.308-.218-1.853-.545v.11c0 2.016 1.417 3.76 3.27 4.14a3.514 3.514 0 01-1.09.164c-.273 0-.545 0-.763-.054.545 1.69 2.016 2.888 3.815 2.943A8.03 8.03 0 01.98 15.62c-.327 0-.654 0-.981-.055a11.33 11.33 0 006.267 1.908c7.575 0 11.662-6.43 11.662-11.99V4.94c.818-.6 1.526-1.308 2.071-2.18-.708.327-1.526.545-2.343.654.817-.6 1.471-1.417 1.798-2.398z" fill="#B3B3B3"/></svg>
